X:3607
T:Left-Handed Fiddler, The
O:england
C:James Scott Skinner
R:reel
M:C|
K:A
cAce a2ed|cAEA GBBd|cAce aefd|ecdB cAAd|
cAce a2ed|cAEA GBBc|AcBd cedf|ecdB cA~A2||
a2Aa caAa|caAc BcdB|a2Aa caAc|BcdB cA~A2|
a2Aa caAa|caAc BcdB|cAdB eagf|ecdB cAAd||


